X:35
T:Freidätag-Juiz  Bb  ABCD
T:Fredy Wallimann (30.8.1952)
T:Dirigenten-Notiz  Edi Gasser
C:Unterwalden (CH)
%%partsbox
%P:ABCD
M:3/4
R:Naturjodel
L:1/4
K:Bb
[P:A] F>Ff | d3 | F>Fe | c3 | F>Ff | d2c | B2d | F>Ff | d2B | c2e | F>Ff | d2c | !fermata!B3 | 
F>Ff | d3 | F>Fe | c3 | F>Ff | d2c | B2d | F>Ff | d2B | c2e | F>Ff | d2c | !fermata!B2z || 
M:4/4
[P:B] d>cBF | EccF | e>dce | d2BF | d>cBF | EccF | e>dcd | B2zF/F/ | 
d>cBF | EccF | e>dce | d2BF/F/ | d>cBF | EccF | e>dcd | B3z ||  
M:3/4
[P:C]  B,/D/ | F>Fd | c2B | A>CF | E2G | F>Fe | d2c | B>Bc | d2 B,/D/ | 
F>Fd | c2B | A>CF | E2G | F>Fe | d2c | (B3 | B2) B,/D/ | 
F>Fd | c2B | A>CF | E2G | F>Fe | d2c | B>Bc | d2 B,/D/ | 
F>Fd | c2B | A>CF | E2G | F>Fe | d2c | (B3 | B2) || 
M:4/4
[P:D] d| e>dc e | dcBG | Fedc | B3 |]
W:
%W:Reihenfolge: A-B-C-D
W:meinem Grosskind Samuel herzlich gewidmet - 21. Juli 2012
W: 'es isch ä Freidätag gsi ...'  Fredy (it was a day of joy ...)
W:
W:notiert Edi Gasser, nach Angaben von Fredy (Wallimann)
W:UJV-Naturjodelsammlung: Code-Nr: 17-18
W:http://www.naturjodler.ch/code 17-a.htm  (with AUDIO)
%May 15 2018

